icons/16px/rocketLaunch.svg

<svg width="16" height="16" viewBox="0 0 16 16" fill="none" xmlns="http://www.w3.org/2000/svg">
<path fill-rule="evenodd" clip-rule="evenodd" d="M8.00366 4.00139H5.7851C5.28154 4.00139 4.79649 4.19124 4.42671 4.53307L2.13444 6.65209C1.93954 6.83226 1.97078 7.14879 2.19714 7.28738L5.00186 9.00466L7.00257 11.0055L7.00404 11.0074L8.75125 13.8128C8.88309 14.0245 9.1743 14.0653 9.35932 13.8981L11.3466 12.1023C11.7664 11.7228 12.0061 11.1833 12.0061 10.6174V8.00401C13.1116 6.89837 13.7591 5.70112 13.9485 3.50114C13.9816 3.11658 14.0007 3.02458 14.0058 2.40045C14.0077 2.1794 13.8279 1.99967 13.6069 2.00148C12.9828 2.00659 12.8908 2.02571 12.5063 2.05882C10.3064 2.24823 9.10923 2.89575 8.00366 4.00139ZM8.62244 10.7292L9.32656 11.7855L10.5052 10.8033L10.5051 9.27L8.62244 10.7292ZM10.5052 7.38228L10.9448 6.94265C11.491 6.39636 11.8502 5.87879 12.0935 5.19766C12.2458 4.77117 12.3641 4.31956 12.4341 3.57335C11.6613 3.62688 11.2363 3.76162 10.8098 3.91394C10.1288 4.1572 9.61121 4.51645 9.06495 5.06274L8.62535 5.50237L6.44782 8.32799L7.67979 9.56003L10.5052 7.38228ZM5.62356 5.50237L6.75058 5.49853L5.2787 7.38527L4.35594 6.77006L5.62356 5.50237Z" fill="black"/>
<path fill-rule="evenodd" clip-rule="evenodd" d="M3.98935 12.3667C4.40919 12.2268 4.56661 12.0708 4.62272 11.9954C4.67069 11.9309 4.71042 11.8395 4.70197 11.6617C4.69782 11.5743 4.65909 11.4833 4.58596 11.41C4.51324 11.3371 4.42729 11.3022 4.3477 11.299C4.16394 11.2915 4.06924 11.3327 4.00374 11.3812C3.92853 11.437 3.77315 11.5928 3.63371 12.0111C3.57883 12.1758 3.53268 12.3426 3.49396 12.5065C3.65788 12.4678 3.8247 12.4216 3.98935 12.3667ZM3.30454 13.8714C2.96146 13.931 2.65056 13.9705 2.41564 13.9958C2.17949 14.0212 1.98448 13.8287 2.00783 13.5923C2.03126 13.3551 2.06919 13.041 2.12911 12.696C2.18821 12.3556 2.27449 11.9778 2.40043 11.6C2.80043 10.4 3.54434 9.96529 4.40043 10C5.25651 10.0348 5.9598 10.7433 6.00051 11.6C6.04121 12.4567 5.60051 13.2 4.40043 13.6C4.02266 13.726 3.64488 13.8123 3.30454 13.8714Z" fill="black"/>
</svg>

<?xml version="1.0" encoding="UTF-8"?>
<svg id="Layer_1" data-name="Layer 1" xmlns="http://www.w3.org/2000/svg" viewBox="0 0 16 16">
  <defs>
    <style>
      .cls-1 {
        fill-rule: evenodd;
        stroke-width: 0px;
      }
    </style>
  </defs>
  <path class="cls-1" d="m8.0037,4.0014h-2.2186c-.5036,0-.9886.1898-1.3584.5317l-2.2923,2.119c-.1949.1802-.1637.4967.0627.6353l2.8047,1.7173,2.0007,2.0008.0015.0019,1.7472,2.8054c.1318.2117.423.2525.6081.0853l1.9873-1.7958c.4198-.3795.6595-.919.6595-1.4849v-2.6134c1.1055-1.1056,1.753-2.3029,1.9424-4.5029.0331-.3846.0522-.4766.0573-1.1007.0019-.2211-.1779-.4008-.3989-.399-.6241.0051-.7161.0242-1.1006.0573-2.1999.1894-3.3971.8369-4.5026,1.9426Zm.6188,6.7278l.7041,1.0563,1.1786-.9822v-1.5333s-1.8828,1.4592-1.8828,1.4592Zm1.8828-3.3469l.4396-.4396c.5462-.5463.9054-1.0639,1.1487-1.745.1523-.4265.2706-.8781.3406-1.6243-.7728.0535-1.1978.1883-1.6243.3406-.681.2433-1.1986.6025-1.7449,1.1488l-.4396.4396-2.1775,2.8256,1.232,1.232,2.8254-2.1778Zm-4.8816-1.8799l1.127-.0038-1.4719,1.8867-.9228-.6152,1.2676-1.2677Zm-1.6342,6.8643c.4198-.1399.5773-.2959.6334-.3713.048-.0645.0877-.1559.0793-.3337-.0041-.0874-.0429-.1784-.116-.2517-.0727-.0729-.1587-.1078-.2383-.111-.1838-.0075-.2785.0337-.344.0822-.0752.0558-.2306.2116-.37.6299-.0549.1647-.101.3315-.1398.4954.1639-.0387.3307-.0849.4954-.1398Zm-.6848,1.5047c-.3431.0596-.654.0991-.8889.1244-.2362.0254-.4312-.1671-.4078-.4035.0234-.2372.0614-.5513.1213-.8963.0591-.3404.1454-.7182.2713-1.096.4-1.2,1.1439-1.6347,2-1.6.8561.0348,1.5594.7433,1.6001,1.6.0407.8567-.4,1.6-1.6001,2-.3778.126-.7556.2123-1.0959.2714Z"/>
</svg>
